X:117
T:Burnt Old Man, The
R:jig
H:Originally Scottish march (in G) "The Campbells are Coming"
Z:id:hn-jig-117
M:6/8
K:D
DFB AFD | ~F3 F2E | DFB AFD | ~E3 E2F |
DFB AFD | F2A d2e | fed B2d | ABA F2E :|
|: ~d3 def | ABA AFA | ~e3 ede | fed B2A |
~d3 def | ABA d2e | fed B2d | ABA F2E :|
P:variations
|: DFB AFD | FGF F2E | DFB AFD | ~E3 EFE |
DFB AFE | DFA d2e | fed BdB | AFD E2D :|
|: ~d3 def | ~A3 AFA | ~e3 ede | fed B2A |
~d3 def | ~A3 a2g | fed BdB | AFD E2D :|

